static/images/industry.svg

<?xml version="1.0" encoding="UTF-8"?>
<svg width="88px" height="114px" viewBox="0 0 88 114" version="1.1" xmlns="http://www.w3.org/2000/svg" xmlns:xlink="http://www.w3.org/1999/xlink">
    <!-- Generator: sketchtool 52.2 (67145) - http://www.bohemiancoding.com/sketch -->
    <title>2D814A0E-52D2-4C4B-B80D-62C9585DBB59</title>
    <desc>Created with sketchtool.</desc>
    <defs>
        <polygon id="path-1" points="3.64864865e-05 0.0108813008 14.8870095 0.0108813008 14.8870095 13.9430894 3.64864865e-05 13.9430894"></polygon>
        <linearGradient x1="50%" y1="0%" x2="50%" y2="100%" id="linearGradient-3">
            <stop stop-color="#15AAFF" offset="0%"></stop>
            <stop stop-color="#0971FF" offset="100%"></stop>
        </linearGradient>
        <linearGradient x1="50%" y1="0%" x2="50%" y2="100%" id="linearGradient-4">
            <stop stop-color="#76FFBF" offset="0%"></stop>
            <stop stop-color="#41FF8B" offset="100%"></stop>
        </linearGradient>
    </defs>
    <g id="Page-1" stroke="none" stroke-width="1" fill="none" fill-rule="evenodd">
        <g id="0xCERT-non-fungible-alliance-2" transform="translate(-645.000000, -2918.000000)">
            <g id="Group-18" transform="translate(215.000000, 2919.000000)">
                <g id="industry" transform="translate(415.000000, 0.000000)">
                    <polygon id="Rectangle-path" points="0 5 109 5 109 114 0 114"></polygon>
                    <g id="Group-16" transform="translate(29.000000, 22.000000)">
                        <mask id="mask-2" fill="white">
                            <use xlink:href="#path-1"></use>
                        </mask>
                        <g id="Clip-15"></g>
                        <path d="M14.3604486,0.0108813008 L12.9178946,0.0108813008 L5.58113108,6.87708455 L6.64696216,7.8745561 C6.71817162,7.94125528 6.71817162,8.04938537 6.64696216,8.11602764 L5.08996216,9.57316585 C5.01869189,9.63986504 4.90315135,9.63986504 4.83194189,9.57316585 L2.14805676,7.0614748 C2.0228473,6.94429593 2.02375946,6.75398699 2.15006351,6.63788943 L9.35833378,0.0108813008 L5.43925946,0.0108813008 L6.55361757,1.08301951 C6.62415811,1.15091382 6.62221216,1.25949919 6.5493,1.32517398 L4.95070541,2.76324715 C4.87888784,2.82784065 4.76505,2.82664553 4.69487432,2.76051545 L1.7168473,0.0108813008 L0.526597297,0.0108813008 C0.236955405,0.0108813008 3.64864865e-05,0.232604878 3.64864865e-05,0.503669919 L3.64864865e-05,13.4502553 C3.64864865e-05,13.7213203 0.236955405,13.9431008 0.526597297,13.9431008 L1.88425946,13.9431008 L9.30591486,6.9973935 L8.24008378,5.99992195 C8.16887432,5.93322276 8.16887432,5.82514959 8.24008378,5.75845041 L9.79714459,4.3013122 C9.86835405,4.23461301 9.98389459,4.23461301 10.0551041,4.3013122 L12.7389892,6.81306016 C12.8642595,6.93023902 12.8632865,7.12049106 12.7369824,7.23658862 L5.44223919,13.9431008 L9.37846216,13.9431008 L9.59063108,13.9425317 L8.44635405,12.8416537 C8.37581351,12.7737593 8.37775946,12.6651171 8.45067162,12.5994992 L10.0492662,11.1613691 C10.1210838,11.0967756 10.2349216,11.0980276 10.3050973,11.1641577 L13.307023,13.9358732 L14.3604486,13.9431008 C14.6500905,13.9431008 14.8870095,13.7213203 14.8870095,13.4502553 L14.8870095,0.503669919 C14.8870095,0.232604878 14.6500905,0.0108813008 14.3604486,0.0108813008" id="Fill-14" fill="#3D8CFF" mask="url(#mask-2)"></path>
                    </g>
                    <path d="M25,6.98224614 L25,3.62881248 C25,1.66305557 26.5880211,7.10542736e-15 28.5655739,7.10542736e-15 L83.8822464,7.10542736e-15 C84.8225578,7.10542736e-15 85.2596486,0.402700889 85.9281937,1.05810334 L100.931505,15.7819109 C101.61228,16.4499259 102,17.0656889 102,18.0179369 L102,100" id="Shape" stroke="#B0C8D3" stroke-width="2" fill="#FFFFFF" stroke-linecap="round" stroke-linejoin="round"></path>
                    <path d="M93,108.383061 C93,110.357252 91.3965788,112 89.4149495,112 L19.5655739,112 C17.5880211,112 16,110.357252 16,108.383061 L16,11.642713 C16,9.66942609 17.5880211,8 19.5655739,8 L74.8822464,8 C75.8225578,8 76.2596486,8.40424348 76.9281937,9.06215652 L91.9315055,23.8423652 C92.6122801,24.5129391 93,25.1310609 93,26.0869565 L93,108.383061 L93,108.383061 Z" id="Shape" stroke="#B0C8D3" stroke-width="2" fill="#FFFFFF" stroke-linecap="round" stroke-linejoin="round"></path>
                    <rect id="Rectangle-2" fill="url(#linearGradient-3)" x="40" y="41" width="39" height="8" rx="4"></rect>
                    <rect id="Rectangle-2" fill="url(#linearGradient-4)" x="57" y="64" width="22" height="8" rx="4"></rect>
                    <rect id="Rectangle-2" fill="url(#linearGradient-4)" x="57" y="87" width="22" height="8" rx="4"></rect>
                    <polyline id="Shape" stroke="#B0C8D3" stroke-width="2" stroke-linecap="round" stroke-linejoin="round" points="75 8 75 26 93 26"></polyline>
                    <polyline id="Path-3" stroke="#B0C8D3" stroke-width="2" points="40.2176413 44.9859124 29.0608406 44.9859124 29.0608406 91.9541456"></polyline>
                    <path d="M27.9577321,91 L57.1054663,91" id="Path-4" stroke="#B0C8D3" stroke-width="2"></path>
                    <path d="M28.0196863,68 L57.1674205,68" id="Path-4" stroke="#B0C8D3" stroke-width="2"></path>
                </g>
            </g>
        </g>
    </g>
</svg>

<svg width="88" height="114" viewBox="0 0 88 114" xmlns="http://www.w3.org/2000/svg" xmlns:xlink="http://www.w3.org/1999/xlink">
    <title>
        2D814A0E-52D2-4C4B-B80D-62C9585DBB59
    </title>
    <defs>
        <path id="a" d="M0 .01h14.887v13.933H0z"/>
        <linearGradient x1="50%" y1="0%" x2="50%" y2="100%" id="c">
            <stop stop-color="#15AAFF" offset="0%"/>
            <stop stop-color="#0971FF" offset="100%"/>
        </linearGradient>
        <linearGradient x1="50%" y1="0%" x2="50%" y2="100%" id="d">
            <stop stop-color="#76FFBF" offset="0%"/>
            <stop stop-color="#41FF8B" offset="100%"/>
        </linearGradient>
    </defs>
    <g transform="translate(-15 1)" fill="none" fill-rule="evenodd">
        <path d="M0 5h109v109H0z"/>
        <g transform="translate(29 22)">
            <mask id="b" fill="#fff">
                <use xlink:href="#a"/>
            </mask>
            <path d="M14.36.01h-1.442L5.58 6.878l1.066.998a.163.163 0 0 1 0 .241L5.09 9.573a.191.191 0 0 1-.258 0L2.148 7.061a.285.285 0 0 1 .002-.423L9.358.01H5.44l1.115 1.072a.163.163 0 0 1-.005.242L4.951 2.763a.191.191 0 0 1-.256-.002L1.717.01H.527C.237.01 0 .233 0 .504V13.45c0 .271.237.493.527.493h1.357l7.422-6.946L8.24 6a.163.163 0 0 1 0-.242l1.557-1.457a.191.191 0 0 1 .258 0l2.684 2.512a.285.285 0 0 1-.002.424l-7.295 6.706h4.149l-1.145-1.101a.163.163 0 0 1 .005-.243l1.598-1.438a.191.191 0 0 1 .256.003l3.002 2.772 1.053.007c.29 0 .527-.222.527-.493V.504c0-.271-.237-.493-.527-.493" fill="#3D8CFF" mask="url(#b)"/>
        </g>
        <path d="M25 6.982V3.63C25 1.663 26.588 0 28.566 0h55.316c.94 0 1.378.403 2.046 1.058l15.004 14.724c.68.668 1.068 1.284 1.068 2.236V100" stroke="#B0C8D3" stroke-width="2" fill="#FFF" stroke-linecap="round" stroke-linejoin="round"/>
        <path d="M93 108.383c0 1.974-1.603 3.617-3.585 3.617h-69.85c-1.977 0-3.565-1.643-3.565-3.617v-96.74C16 9.669 17.588 8 19.566 8h55.316c.94 0 1.378.404 2.046 1.062l15.004 14.78c.68.67 1.068 1.29 1.068 2.245v82.296z" stroke="#B0C8D3" stroke-width="2" fill="#FFF" stroke-linecap="round" stroke-linejoin="round"/>
        <rect fill="url(#c)" x="40" y="41" width="39" height="8" rx="4"/>
        <rect fill="url(#d)" x="57" y="64" width="22" height="8" rx="4"/>
        <rect fill="url(#d)" x="57" y="87" width="22" height="8" rx="4"/>
        <path stroke="#B0C8D3" stroke-width="2" stroke-linecap="round" stroke-linejoin="round" d="M75 8v18h18"/>
        <path stroke="#B0C8D3" stroke-width="2" d="M40.218 44.986H29.06v46.968M27.958 91h29.147M28.02 68h29.147"/>
    </g>
</svg>
